!!!SOCIAL_FUNCTION:	songs connected with legends
!!!PDT:	1939
!!!OTL: No_111_Song_of_the_Man_on_the_Rock.krn
!!!LANG: Non-Tone
!!!LING_GROUP: Wakashan
!!!REG: Pacific Northwest
**kern
*staff1
=1-
*clefF4
*k[f#c#g#]
*M2/4
4r
8r
16r
16E\
=2
8.F#\L
16A\Jk
4A\
=3
4.A\
16B\LL
16A\JJ
=4
4F#\
4r
=5!|:
4A\
16A\LK
8.F#\J
=6
16F#\LK
8.E\J
8E\
16r
16E\
=7
4F#\
12A\L
12F#\
12E\J
=8||
*M3/4
[2F#\
8F#\L]
16A\L
16F#\JJ
=9||
*M2/4
2E\
=10
4F#\
4F#\
=11
16F#\LK
8.E\J
8E\
16r
16E\
=12
8.F#\L
16A\Jk
4A\
=13
4.A\
16B\LL
16A\JJ
=14
2F#\
==:|!
*-
